!!!COM: de Machuat, Guillaume
!!!OTL: Dame, mon cuer emportes
!! Guillaume de Machaut, "Dame, mon cuer emportes" No. 29 from Volume 5 of
!! "Oeuvres Comple\tes" E/ditions de l'Oiseau-lyre (Monaco) -1977; p.50
!! The second ending is encoded.
**kern	**kern
*M3/4	*M3/4
=1	=1
4r	4Bn
2F	2c
=2	=2
2.C	8e
.	8d
.	4e
.	4c
=3	=3
2.F	8d
.	4c
.	8B-
.	4A
=4	=4
2.C	4G
.	2r
=5	=5
4.c	4F
.	4E
8d	.
4c	4F
=6	=6
4B-	4G
2A	2A
=7	=7
4r	4.A
2G	.
.	8D
.	4E
=8	=8
8F	8F
8E	4r
4F	.
.	8G
4D	4A
=9	=9
4r	4B-
2F#	2A
=10	=10
2.G	4G
.	2r
=11	=11
2.D	8f
.	8e
.	4f
.	4d
=12	=12
2.E	4.c
.	8B
.	4c
=13	=13
2.D	4.d
.	8A
.	4B
=14	=14
2.C	8c
.	8B
.	4c
.	4A
=15	=15
4r	4B
2F	2c
=16	=16
2.C	8e
.	8d
.	4e
.	4c
=17	=17
2F	4c
.	4c
4E	4G
=18	=18
4r	4.G
2D	.
.	8A
.	4B-
=19	=19
4r	8c
.	4B-
2E	.
.	8A
.	4G
=20	=20
2.F	2.F
=21	=21
4E	4.G
2D	.
.	8A
.	4Bn
=22	=22
4.C	4c
.	8r
8G	8e
4F	4d
=23	=23
4E	8d
.	4c
2D	.
.	8d
.	4B
=24	=24
4C	8c
.	4r
2G	.
.	8d
.	4e
=25	=25
2.F	8f
.	8e
.	4f
.	4d
=26	=26
4.F	8c
.	4r
8G	8B-
4A	4A
=27	=27
4.G	4B-
.	2c
8D	.
4E	.
=28	=28
2.F	2.F
==	==
*-	*-
